Delta/places/scalable/folder-download.svg

<svg xmlns="http://www.w3.org/2000/svg" width="192" height="192" viewBox="0 0 192 192">
  <g fill="none" fill-rule="evenodd">
    <rect width="152" height="152" x="20" y="20" fill="#728DBE" rx="10"/>
    <path fill="#9ABEFF" d="M20,42.9965372 C20,37.4756022 24.4775919,33 29.9984742,33 L63.5667725,33 C72.0254898,33 75.1405393,46.256422 78.9328151,46.256422 L161.997289,46.256422 C167.521634,46.256422 172,50.7317026 172,56.254764 L172,162.001658 C172,167.52359 167.522997,172 161.997483,172 L30.0025173,172 C24.4782795,172 20,167.532652 20,162.003463 L20,42.9965372 Z"/>
    <path fill="#728DBE" d="M97,83 L97,135 L71,110.466614 L78.6253657,102.480219 L89.8706399,113.451218 L89.8706399,83 L97,83 Z M104.12936,83 L104.12936,113.451218 L115.374634,102.480219 L123,110.466614 L97,135 L97,83 L104.12936,83 Z"/>
  </g>
</svg>

<svg width="192" height="192" version="1.1" viewBox="0 0 192 192" xmlns="http://www.w3.org/2000/svg">
 <rect x="20" y="20" width="152" height="152" rx="10" style="fill-rule:evenodd;fill:#728dbe"/>
 <path d="m20 42.997c0-5.5209 4.4776-9.9965 9.9985-9.9965h33.568c8.4587 0 11.574 13.256 15.366 13.256h83.064c5.5243 0 10.003 4.4753 10.003 9.9983v105.75c0 5.5219-4.477 9.9983-10.003 9.9983h-131.99c-5.5242 0-10.003-4.4674-10.003-9.9965z" style="fill-rule:evenodd;fill:#9abeff"/>
 <path d="m71 110.47 26 24.533 26-24.533-7.6254-7.9864-11.245 10.971v-30.451h-14.259v30.451l-11.245-10.971z" style="fill:#728dbe"/>
</svg>
